!!!!SEGMENT: pl-cz--iii-506--001-006_neumann-wawrzyniec--vesperae-c-magnificat.krn
!!!cenid: 17xx:245
!!!COM: Neumann, Wawrzyniec
!!!COM-rismID: pe30107352
!!!CDT: ~1700-~1799
!!!CNT:
!!!OPR: Vesperae C
!!!OTL: Magnificat
!!!OMV: 006
!!!PDT:
!!!AGN: Sacred
!!!YEC: Copyright 2022 Narodowy Instytut Fryderyka Chopina (https://polishscores.org)
!!!YEM: License CC-BY-4.0 (https://creativecommons.org/licenses/by/4.0)
!!!SMS-siglum: PL-CZ
!!!SMS-shelfmark: III-506
!!!SMS-shelfwork: 001-006 M
!!!NIFC-rismSourceID: 300000913
!!!NIFC-rismChildID: 300000913
!!!NIFC-islandoraID: pl-cz:38772
!!!URL-pdf-islandora: https://repozytorium.nifc.pl/islandora/object/pl-cz%3A38772/datastream/PDF/view
!!!URL-scan: https://polish.musicsources.pl/pl/lokalizacje/galeria/rekopisy/6941/1 @EN{Scan on Polish Music Sources Website} @PL{Skany w portalu Dziedzictwo Muzyki Polskiej w otwartym dostępie}
!!!IIIF:
!!!ONB-nifc: UWAGA: części Vesperae: Dixit, Confitebor, Beatus, Laudate pueri, Laudate Dominum, Magnificat
!!!AIN: 1 alto 3 empty 1 organ 1 tenor 2 violn 1 vox
!!!key:
**kern	**fba	**kern	**text	**kern	**text	**kern	**text	**kern	**text	**kern	**dynam	**kern	**dynam	**kern	**kern
*group4	*	*group3	*	*group3	*	*group3	*	*group3	*	*group2	*	*group2	*	*group1	*group1
*part9	*	*part8	*	*part7	*	*part6	*	*part5	*	*part4	*	*part3	*	*part2	*part1
*staff9	*	*staff8	*	*staff7	*	*staff6	*	*staff5	*	*staff4	*	*staff3	*	*staff2	*staff1
*Iorgan	*	*Iempty	*	*Itenor	*	*Ialto	*	*Ivox	*	*Ivioln	*	*Ivioln	*	*Iempty	*Iempty
*I"Organo	*	*I"Baſso Conc.e	*	*I"Tenore ad libe.	*	*I"Alto Conc.e	*	*I"Canto Conc.e	*	*I"Violino Secundo.	*	*I"Violino Primo.	*	*I"Clarino Secondo.	*I"Clarino Primo.
*I'Org	*	*I'B	*	*I'T	*	*I'A	*	*I'C	*	*I'Vn II	*	*I'Vn I	*	*I'Clno II	*I'Clno I
*clefF4	*	*clefF4	*	*clefC4	*	*clefC3	*	*clefC1	*	*clefG2	*	*clefG2	*	*clefG2	*clefG2
*k[]	*	*k[]	*	*k[]	*	*k[]	*	*k[]	*	*k[]	*	*k[]	*	*k[]	*k[]
*C:	*	*C:	*	*C:	*	*C:	*	*C:	*	*C:	*	*C:	*	*C:	*C:
*M4/4	*	*M4/4	*	*M4/4	*	*M4/4	*	*M4/4	*	*M4/4	*	*M4/4	*	*M4/4	*M4/4
*met(c)	*	*met(c)	*	*met(c)	*	*met(c)	*	*met(c)	*	*met(c)	*	*met(c)	*	*met(c)	*met(c)
=1	=1	=1	=1	=1	=1	=1	=1	=1	=1	=1	=1	=1	=1	=1	=1
!LO:TX:a:t=S&colon;	!	!LO:TX:a:t=S&colon;	!	!	!	!LO:TX:b:t=2	!	!LO:TX:a:t=2	!	!	!LO:DY:a	!	!	!	!LO:TX:a:b:t=2
!LO:TX:a:t=Adagio.	!	!LO:TX:a:t=Adagio&colon;	!	!LO:TX:a:t=adagio	!	!LO:TX:a:t=Ada&colon;	!	!LO:TX:a:t=Adagio	!	!LO:TX:a:t=Adagio	!LO:DY:t=pi:	!	!LO:DY:a	!LO:TX:a:t=ad&colon;	!LO:TX:a:t=adagio.
1C	.	4C/	Ma-	0r	.	0r	.	0r	.	1ee	p	[1gg	p	0r	0r
.	.	8C/	-gni-	.	.	.	.	.	.	.	.	.	.	.	.
.	.	16C/	-fi-	.	.	.	.	.	.	.	.	.	.	.	.
.	.	16C/	-cat	.	.	.	.	.	.	.	.	.	.	.	.
.	.	8c\	a-	.	.	.	.	.	.	.	.	.	.	.	.
.	.	16B\	-ni-	.	.	.	.	.	.	.	.	.	.	.	.
.	.	16A\	-ma	.	.	.	.	.	.	.	.	.	.	.	.
.	.	16G\LL	me-	.	.	.	.	.	.	.	.	.	.	.	.
.	.	16F\JJ	.	.	.	.	.	.	.	.	.	.	.	.	.
.	.	8E\	-a	.	.	.	.	.	.	.	.	.	.	.	.
=2	=2	=2	=2	=2	=2	=2	=2	=2	=2	=2	=2	=2	=2	=2	=2
*	*	*	*	*	*	*	*	*	*	*2\right	*	*2\right	*	*	*
2C/	5	16c\LL	a-	.	.	.	.	.	.	4.ee\	.	2gg\]	.	.	.
.	.	16e\JJ	.	.	.	.	.	.	.	.	.	.	.	.	.
.	6 4	16d\	-ni-	.	.	.	.	.	.	.	.	.	.	.	.
.	.	16c\	-ma	.	.	.	.	.	.	.	.	.	.	.	.
.	.	8B\	me-	.	.	.	.	.	.	.	.	.	.	.	.
.	.	8A\	-a	.	.	.	.	.	.	8ff\	.	.	.	.	.
2BB/	6	(4G\	Do-	.	.	.	.	.	.	2gg\	.	2ddd\	.	.	.
!	!	!LO:TX:a:t=t&colon;	!	!	!	!	!	!	!	!	!	!	!	!	!
.	5	8.F\)	.	.	.	.	.	.	.	.	.	.	.	.	.
.	.	16F\	-mi-	.	.	.	.	.	.	.	.	.	.	.	.
=3	=3	=3	=3	=3	=3	=3	=3	=3	=3	=3	=3	=3	=3	=3	=3
*M3/4	*	*M3/4	*	*M3/4	*	*M3/4	*	*M3/4	*	*M3/4	*	*M3/4	*	*M3/4	*M3/4
!LO:TX:a:t=Allo&colon;	!	!	!	!	!	!	!	!	!	!	!	!	!	!	!
!LO:TX:a:t=T&colon;	!	!LO:TX:a:t=allo&colon;	!	!LO:TX:a:t=1	!	!LO:TX:a:t=1	!	!LO:TX:a:t=Allo&colon;	!	!	!	!	!	!LO:TX:a:t=Allo&colon;	!LO:TX:a:t=allo&colon;
8C/	.	8E\	-num.	2.r	.	2.r	.	8r	.	8ee\L	.	8ccc\L	.	2.r	2.r
!	!	!	!	!	!	!	!	!LO:TX:a:t=T&colon;	!	!LO:TX:a:t=Allo&colon;	!LO:DY:a	!LO:TX:a:t=Allo&colon;	!LO:DY:a	!	!
8r	.	8r	.	.	.	.	.	8g\	Et	8g\	f	8g\	f	.	.
4r	.	4r	.	.	.	.	.	8b\	ex-	8b\	.	8b\	.	.	.
.	.	.	.	.	.	.	.	8dd\	-sul-	8dd\	.	8dd\	.	.	.
4r	.	4r	.	.	.	.	.	8ff\	-ta-	8ff\	.	8ff\	.	.	.
.	.	.	.	.	.	.	.	8ee\	-vit	8ee\J	.	8ee\J	.	.	.
!	!	!LO:LB:g=original	!	!	!	!	!	!	!	!	!	!	!	!	!
=4	=4	=4	=4	=4	=4	=4	=4	=4	=4	=4	=4	=4	=4	=4	=4
!	!	!LO:TX:a:t=T&colon;	!	!LO:TX:a:t=Allo&colon;	!	!LO:TX:a:t=T&colon;	!	!	!	!	!	!	!	!	!
4F\	6	8F\	Spi-	8d\	Spi-	8a\	Spi-	8dd\	Spi-	8dd\L	.	8dd\L	.	8r	4dd\
.	4	16F\	-ri-	16d\	-ri-	16g\	-ri-	16cc\	-ri-	16cc\L	.	16cc\L	.	8g\L	.
.	.	16F\	-tus	16d\	-tus	16g\	-tus	16b\	-tus	16b\JJ	.	16b\JJ	.	.	.
8E\L	6	8E\	me-	8e\	me-	8g\	me-	8cc\	Me-	8cc\L	.	8cc\L	.	8ee\	8gg\L
8F\J	.	16F\	-us	16c\	-us	16g\	-us	16b,\	-us	16b\L	.	16b\L	.	8dd\	8ff\
.	.	16F\	in	16A\	in	16f\	in	16a\	in	16a\JJ	.	16a\JJ	.	.	.
4G\	6	8G\	De-	8B\	De-	8e\	De-	8g/	De-	8ee\L	.	8g/L	.	8cc\	8ee\
.	5	8G\	-o	8B\	-o	8d\	-o	8f/	-o	8dd\J	.	8f/J	.	8g\J	8dd\J
=5	=5	=5	=5	=5	=5	=5	=5	=5	=5	=5	=5	=5	=5	=5	=5
4C/	.	8C/	Sa-	8c\	Sa-	8c\	Sa-	8e/	Sa-	8.cc/L	.	16e/LL	.	4cc\	4ee\
.	.	.	.	.	.	.	.	.	.	.	.	16g/	.	.	.
.	.	8C/	-lu-	8c\	-lu-	8e\	-lu-	8g/	-lu-	.	.	16a/	.	.	.
.	.	.	.	.	.	.	.	.	.	16g/Jk	.	16b/JJ	.	.	.
4r	.	8C/	-ta-	8e\	-ta-	8g\	-ta-	8cc\	-ta-	16a\LL	.	16cc\LL	.	4r	4r
.	.	.	.	.	.	.	.	.	.	16b\	.	16dd\	.	.	.
.	.	8C/	-ri	8c\	-ri	8a\	-ri	8ff,\	-ri	16cc\	.	16ee\	.	.	.
.	.	.	.	.	.	.	.	.	.	16dd\JJ	.	16ff\JJ	.	.	.
4G\	6	4G\	me-	4B\	me-	(8g\L	me-	8ee\L	me-	8ee\L	.	(8gg\L	.	8cc\L	8ee\L
.	5	.	.	.	.	8f\J)	.	8dd\J	.	8dd\J	.	8ff\J)	.	8g\J	8dd\J
!	!	!	!	!	!	!	!	!LO:LB:g=original	!	!	!	!LO:LB:g=original	!	!	!
=6	=6	=6	=6	=6	=6	=6	=6	=6	=6	=6	=6	=6	=6	=6	=6
4C/	.	4C/	-o,	4G/	-o,	4e\	-o.	4cc,\	-o.	4cc\	.	4ee\	.	4e/	4cc\
!	!	!	!	!	!	!	!	!	!	!	!LO:DY:a	!	!	!	!
!	!	!	!	!	!	!	!	!LO:TX:a:t=S&colon;	!	!	!LO:DY:t=pi:	!	!LO:DY:t=pi:	!	!
4r	.	4r	.	4r	.	4r	.	4ee\	qui-	4c/	p	4g/	p	4r	4r
4r	.	4r	.	4r	.	4r	.	8ee\	-a	4c/	.	4g/	.	4r	4r
.	.	.	.	.	.	.	.	8ee\	Res-	.	.	.	.	.	.
!	!	!	!	!	!	!	!	!	!	!LO:LB:g=original	!	!	!	!	!LO:LB:g=original
=7	=7	=7	=7	=7	=7	=7	=7	=7	=7	=7	=7	=7	=7	=7	=7
!	!	!LO:TX:b:t=5	!	!LO:TX:a:t=5	!	!LO:TX:a:t=5	!	!	!	!	!	!	!	!LO:TX:b:t=9.	!LO:TX:b:t=9.
!LO:N:vis=0	!	!LO:N:vis=00	!	!LO:N:vis=00	!	!LO:N:vis=00	!	!	!	!	!	!	!	!LO:N:vis=00	!LO:N:vis=00
1.r	.	0.r	.	0.r	.	0.r	.	16dd\LL	-pe-	4B/	.	4g/	.	0.r	0.r
.	.	.	.	.	.	.	.	16b\JJ	.	.	.	.	.	.	.
.	.	.	.	.	.	.	.	16g/	-xit	.	.	.	.	.	.
.	.	.	.	.	.	.	.	16g/	hu-	.	.	.	.	.	.
.	.	.	.	.	.	.	.	8g/	-mi-	8.B/L	.	8.d/L	.	.	.
.	.	.	.	.	.	.	.	8g/	-li-	.	.	.	.	.	.
.	.	.	.	.	.	.	.	.	.	16A/Jk	.	16c/Jk	.	.	.
.	.	.	.	.	.	.	.	8g/	-ta-	4G/	.	4B/	.	.	.
.	.	.	.	.	.	.	.	16g,/	-tem	.	.	.	.	.	.
.	.	.	.	.	.	.	.	16g/	an-	.	.	.	.	.	.
=8	=8	=8	=8	=8	=8	=8	=8	=8	=8	=8	=8	=8	=8	=8	=8
.	.	.	.	.	.	.	.	16a\LL	-cil-	4d/	.	16f#X/LL	.	.	.
.	.	.	.	.	.	.	.	16cc\JJ	.	.	.	16a/	.	.	.
.	.	.	.	.	.	.	.	16b\LL	-lae	.	.	16g/	.	.	.
.	.	.	.	.	.	.	.	16dd,\JJ	.	.	.	16b/JJ	.	.	.
.	.	.	.	.	.	.	.	8qqdd/	.	.	.	8qqb/	.	.	.
.	.	.	.	.	.	.	.	4cc\	Su-	8e/L	.	4a/	.	.	.
.	.	.	.	.	.	.	.	.	.	8f#X/J	.	.	.	.	.
.	.	.	.	.	.	.	.	4b\	-ae,	4g/	.	4g/	.	.	.
=9	=9	=9	=9	=9	=9	=9	=9	=9	=9	=9	=9	=9	=9	=9	=9
*	*	*	*	*	*	*	*	*2\right	*	*	*	*	*	*	*
.	.	.	.	.	.	.	.	16qqa/LL	.	.	.	.	.	.	.
.	.	.	.	.	.	.	.	16qqdd/JJ	.	.	.	.	.	.	.
4r	.	.	.	.	.	.	.	2cc\	Ec-	4r	.	4r	.	.	.
!LO:TX:a:t=S&colon;	!	!	!	!	!	!	!	!	!	!	!	!	!	!	!
4A\	.	.	.	.	.	.	.	.	.	4e/	.	[2cc\	.	.	.
4G\	.	.	.	.	.	.	.	4cc\	-ce	4a/	.	.	.	.	.
!LO:LB:g=original	!	!	!	!	!	!	!	!	!	!	!	!	!	!	!
=10	=10	=10	=10	=10	=10	=10	=10	=10	=10	=10	=10	=10	=10	=10	=10
8F#X\L	.	.	.	.	.	.	.	8cc\	E-	(8a/L	.	8cc\L]	.	.	.
8G\J	.	.	.	.	.	.	.	16b,\	-nim	8g/J)	.	8b\J	.	.	.
.	.	.	.	.	.	.	.	16g\	ex	.	.	.	.	.	.
8r	.	.	.	.	.	.	.	4ee\	hoc	4cc\	.	2ee\	.	.	.
8G\L	6 4	.	.	.	.	.	.	.	.	.	.	.	.	.	.
8G\	.	.	.	.	.	.	.	4ee\	Be-	4cc\	.	.	.	.	.
8G\J	.	.	.	.	.	.	.	.	.	.	.	.	.	.	.
!	!	!	!	!	!	!	!	!LO:LB:g=original	!	!	!	!	!	!	!
=11	=11	=11	=11	=11	=11	=11	=11	=11	=11	=11	=11	=11	=11	=11	=11
!	!	!	!	!	!	!LO:TX:a:t=problem:custos g	!	!	!	!	!	!	!	!LO:N:vis=00	!LO:N:vis=00
4G\	5	2.r	.	2.r	.	2.r	.	8gg\	-a-	8b\L	.	8gg\L	.	0.r	0.r
.	.	.	.	.	.	.	.	16ff#X,\	-tam	16dd\L	.	16ff#X\L	.	.	.
.	.	.	.	.	.	.	.	16ee\	me	16cc\JJ	.	16ee\JJ	.	.	.
8r	.	.	.	.	.	.	.	4dd\	di-	4b/	.	(4dd\	.	.	.
8D\L	7 #	.	.	.	.	.	.	.	.	.	.	.	.	.	.
8E\	.	.	.	.	.	.	.	4cc\	-cent	4a/	.	4cc\)	.	.	.
8F#X\J	.	.	.	.	.	.	.	.	.	.	.	.	.	.	.
!	!	!	!	!LO:LB:g=original	!	!LO:LB:g=original	!	!	!	!	!	!	!	!	!
=12	=12	=12	=12	=12	=12	=12	=12	=12	=12	=12	=12	=12	=12	=12	=12
!	!	!LO:TX:a:t=Solo	!	!	!	!LO:TX:a:t=S&colon;	!	!	!	!	!	!	!	!	!
.	.	.	.	.	.	.	.	.	.	.	.	8qqcc/	.	.	.
4G\	.	8G\	om-	8d\	om-	8g\	om-	8b\	om-	4g/	.	4b\	.	.	.
.	5	8G\	-nes	8d\	-nes	8g\	-nes	8g,\	-nes	.	.	.	.	.	.
2C/	6	8C/	ge-	8e\	ge-	8g\	ge-	8ee\	om-	4e/	.	8ee\L	.	.	.
.	5	8C/	-ne-	8e\	-ne-	8g\	-ne-	8cc,\	-nes	.	.	8cc\	.	.	.
.	.	8C/	-ra-	8c\	-ra-	8e\	-ra-	8a\	ge-	4e/	.	8a\	.	.	.
.	.	8C/	-ti-	8c\	-ti-	8e\	-ti-	8g\	ne-	.	.	8g\J	.	.	.
=13	=13	=13	=13	=13	=13	=13	=13	=13	=13	=13	=13	=13	=13	=13	=13
4D\	#	4.D\	-o-	4.A/	-o-	16d\LL	-o-	16f#X/LL	-ra-	8d/L	.	16f#X/LL	.	.	.
.	.	.	.	.	.	16e\	.	16g/	.	.	.	16g/	.	.	.
.	.	.	.	.	.	16f#X\	.	16a/	.	16f#X/L	.	16a/	.	.	.
.	.	.	.	.	.	16g\JJ	.	16b/JJ	.	16g/JJ	.	16b/JJ	.	.	.
8D\L	.	.	.	.	.	8a\	.	16cc\LL	.	8a/	.	8cc\L	.	.	.
.	.	.	.	.	.	.	.	16a\	.	.	.	.	.	.	.
8G\	.	8G\L	.	8G/	.	4g\	.	16b\	ti-	4g/	.	8b\J	.	.	.
.	.	.	.	.	.	.	.	16g\JJ	.	.	.	.	.	.	.
!	!	!	!	!	!	!	!	!LO:TX:a:t=t&colon;	!	!	!	!LO:TX:a:t=t&colon;	!	!	!
8C\	6 5	8C\	.	8e\L	.	.	.	4a\	-o-	.	.	4a/	.	.	.
!	!	!LO:TX:a:t=problem:custos GG	!	!	!	!	!	!	!	!	!	!	!	!	!
8D\J	#	8D\J	.	16d\L	.	8f#X\	.	.	.	8f#X/	.	.	.	.	.
.	.	.	.	16c\JJ	.	.	.	.	.	.	.	.	.	.	.
!	!	!LO:LB:g=original	!	!	!	!	!	!	!	!	!	!LO:LB:g=original	!	!	!
=14	=14	=14	=14	=14	=14	=14	=14	=14	=14	=14	=14	=14	=14	=14	=14
4GG/	3-	4GG/	-nes.	4B\	-nes	4g\	-nes	8g,\	-nes.	4g/	.	8g/L	.	.	.
.	3:	.	.	.	.	.	.	16b-X\	qui-	.	.	8b-X/J	.	.	.
.	.	.	.	.	.	.	.	16b-\	-a	.	.	.	.	.	.
*2\right	*	*	*	*	*	*	*	*	*	*	*	*	*	*	*
2E-X\	6|	4r	.	4r	.	4r	.	8gg\	fe-	2g/	.	4b-/	.	.	.
.	.	.	.	.	.	.	.	8gg\	-cit	.	.	.	.	.	.
.	.	4r	.	4r	.	4r	.	8cc#X\	mi-	.	.	4cc#X/	.	.	.
.	.	.	.	.	.	.	.	8cc#\	-hi	.	.	.	.	.	.
!	!	!	!	!	!	!	!	!LO:LB:g=original	!	!	!	!	!	!	!
=15	=15	=15	=15	=15	=15	=15	=15	=15	=15	=15	=15	=15	=15	=15	=15
4D\	#	4r	.	4r	.	4r	.	8dd\	ma-	8f#X/L	.	8dd\L	.	2.r	2.r
.	.	.	.	.	.	.	.	16dd\	-gna	16bn/L	.	16dd\L	.	.	.
.	.	.	.	.	.	.	.	16ee\	qui	16cc/JJ	.	16een\JJ	.	.	.
!	!	!	!	!	!	!LO:TX:a:t=T&colon;	!	!	!	!	!LO:DY:t=f:	!	!	!	!
8r	.	8r	.	4d\	Po-	4a\	Po-	4dd\	Po-	(4b/	f	(4dd\	f	.	.
!LO:TX:a:t=T&colon;	!	!LO:TX:a:t=T&colon;	!	!	!	!	!	!	!	!	!	!	!	!	!
8D\L	.	8D\L	Po-	.	.	.	.	.	.	.	.	.	.	.	.
8En\	.	8E\J	.	4d\	-tens	4a\	-tens	4cc\	-tens	4a/)	.	4ccn\)	.	.	.
8F#X\J	.	8F#X\	-tens	.	.	.	.	.	.	.	.	.	.	.	.
!	!	!	!	!	!	!	!	!	!	!LO:LB:g=original	!	!	!	!LO:LB:g=original	!
=16	=16	=16	=16	=16	=16	=16	=16	=16	=16	=16	=16	=16	=16	=16	=16
4G\	.	8G\	eſt	8d\	eſt	8g\	eſt	8b,\	eſt	8g/L	.	16bn/LL	.	4g/	4dd\
.	.	.	.	.	.	.	.	.	.	.	.	16a/J	.	.	.
.	.	8G\	et	8d\	et	8g\	et	8b\	et	8d/J	.	8g/J	.	.	.
4E\	.	8E\	San-	8e\	San-	8g\	San-	8b\	San-	8e/	.	8gg\L	.	8r	8r
.	.	8E\	-ctum	8e\	-ctum	8g\	-ctum	8b\	-ctum	4b\	.	8gg\J	.	8e/	8ee\
8G\L	6	8G\	no-	8e\	no-	8g\	no-	8b\	no-	.	.	16gg\LL	.	4e/	4ee\
.	.	.	.	.	.	.	.	.	.	.	.	16ee\	.	.	.
!	!	!	!	!	!	!LO:TX:a:t=problem:2custosy f# i f	!	!	!	!	!	!	!	!	!
[8A\J	6	8A\	-men	8e\	-men	8g\	-men	8cc\	-men	8cc\	.	16ff#X\	.	.	.
.	.	.	.	.	.	.	.	.	.	.	.	16ee\JJ	.	.	.
!	!	!	!	!	!	!LO:LB:g=original	!	!	!	!	!	!	!	!	!
=17	=17	=17	=17	=17	=17	=17	=17	=17	=17	=17	=17	=17	=17	=17	=17
!	!	!	!	!	!	!	!	!	!	!	!	!	!	!LO:TX:b:t=2	!
!	!	!	!	!	!	!	!	!	!	!	!	!	!	!LO:N:vis=0	!LO:N:vis=0
8A\L]	4# 2	8A\	e-	8d#X\	e-	8f#X\	e-	8b\	e-	8f#X/L	.	8dd#X\L	.	1.r	1.r
8G\J	6	8G\	-jus.	8e\	-jus,	8e\	-jus	8b\	-jus,	8b/J	.	8ee\J	.	.	.
!	!	!	!	!	!	!	!	!	!	!	!	!	!LO:DY:a	!	!
!	!	!	!	!	!	!LO:TX:a:t=S&colon;	!	!LO:TX:a:t=S&colon;	!	!	!LO:DY:t=pi:	!	!LO:DY:t=pi:	!	!
4r	.	4r	.	4r	.	8g\	et	8b\	Et	2e/	p	2g/	p	.	.
.	.	.	.	.	.	8g\	Mi-	8b\	Mi-	.	.	.	.	.	.
4r	.	4r	.	4r	.	8g\	-ſe-	8b\	-ſe-	.	.	.	.	.	.
.	.	.	.	.	.	8g\	-ri-	8b\	-ri-	.	.	.	.	.	.
!LO:LB:g=original	!	!	!	!	!	!	!	!	!	!	!	!	!	!	!
=18	=18	=18	=18	=18	=18	=18	=18	=18	=18	=18	=18	=18	=18	=18	=18
!LO:TX:a:t=1	!	!	!	!LO:TX:a:t=1	!	!	!	!	!	!	!	!	!	!	!
2.r	.	2.r	.	2.r	.	4.a\	-cor-	4.cc\	-cor-	8d#X/L	.	8a/L	.	.	.
.	.	.	.	.	.	.	.	.	.	8d#/	.	8f#X/	.	.	.
.	.	.	.	.	.	.	.	.	.	8d#/	.	8f#/	.	.	.
.	.	.	.	.	.	8f#X\	-di-	8b\	-di-	8d#/	.	8f#/	.	.	.
.	.	.	.	.	.	4f#\	-a	4a\	-a	8d#/	.	8f#/	.	.	.
.	.	.	.	.	.	.	.	.	.	8d#/J	.	8f#/J	.	.	.
!	!	!	!	!LO:LB:g=original	!	!	!	!	!	!	!	!	!	!	!
=19	=19	=19	=19	=19	=19	=19	=19	=19	=19	=19	=19	=19	=19	=19	=19
!	!	!	!	!	!	!LO:TX:a:t=sic:s=4f#	!	!	!	!	!	!	!	!	!
4r	.	4r	.	4r	.	4f\	e-	4a\	e-	8e/L	.	4f#X/	.	4r	4r
.	.	.	.	.	.	.	.	.	.	8B/J	.	.	.	.	.
!LO:TX:a:t=T&colon;	!	!	!	!	!	!	!	!	!	!	!	!	!	!	!
4r	.	4r	.	4r	.	4e\	-jus	4g\	-jus	4e/	.	4g/	.	4r	4r
!	!	!	!	!	!	!	!	!	!	!	!LO:DY:a	!	!LO:DY:a	!	!
4G#X\	6	8G#X\	a	8e\	a	8b\	a	8ee\	a	4b\	f	8ee\L	f	4e/	4ee\
.	5	8G#\	pro-	8e\	pro-	8b\	pro-	8dd\	pro-	.	.	8dd\J	.	.	.
!	!	!	!	!	!	!	!	!LO:LB:g=original	!	!	!	!	!	!	!
=20	=20	=20	=20	=20	=20	=20	=20	=20	=20	=20	=20	=20	=20	=20	=20
4A\	.	8A\	-ge-	8e\	-ge-	8a\	-ge-	8cc\	-ge-	2e/	.	8cc\L	.	4e/	4ee\
.	.	8A\	-ni-	8e\	-ni-	8e\	-ni-	8b\	-ni-	.	.	8b\J	.	.	.
8c\L	.	8c\L	-e	4e\	-e	4e\	-e	4a\	-e	.	.	4a/	.	4r	4r
!	!	!LO:TX:a:t=problem:custos F#	!	!	!	!	!	!	!	!	!	!	!	!	!
8A\J	.	8A\J	.	.	.	.	.	.	.	.	.	.	.	.	.
!	!	!LO:LB:g=original	!	!	!	!	!	!	!	!	!	!	!	!	!
4F#X\	6	8F#X\	in	8d\	in	8a\	in	8dd\	in	4a/	.	8aa\L	.	4r	4dd\
.	5	8F#\	pro-	8d\	pro-	8a\	pro-	8cc\	pro-	.	.	8cc\J	.	.	.
!	!	!	!	!	!	!	!	!	!	!	!	!LO:LB:g=original	!	!	!
=21	=21	=21	=21	=21	=21	=21	=21	=21	=21	=21	=21	=21	=21	=21	=21
4G\	.	8G\	-ge-	8d\	-ge-	8g\	-ge-	8b\	-ge-	2d/	.	8b/L	.	4g/	4dd\
.	.	8G\	-ni-	8d\	-ni-	8d\	-ni-	8a\	-ni-	.	.	8a/J	.	.	.
8B\L	.	8B\L	-es	4d\	-es	4d\	-es,	4g,\	-es	.	.	4g/	.	4r	4r
8G\J	.	8G\J	.	.	.	.	.	.	.	.	.	.	.	.	.
4C/	.	4C/	ti-	4e\	ti-	8r	.	4ee\	ti-	8e/L	.	4ee\	.	8e/L	8ee\L
.	.	.	.	.	.	8e\	ti-	.	.	8g/J	.	.	.	8e/J	8ee\J
=22	=22	=22	=22	=22	=22	=22	=22	=22	=22	=22	=22	=22	=22	=22	=22
*	*	*	*	*2\right	*	*	*	*	*	*	*	*	*	*	*
4AA#X/	7	8AA#X/	-men-	8c#X\	-men-	8g\	-men-	8ee\	-men-	4g/	.	16gg\LL	.	4e/	4ee\
.	.	.	.	.	.	.	.	.	.	.	.	16ee\	.	.	.
.	.	16AA#/	-ti-	16c#\	-ti-	16g\	-ti-	16ee\	-ti-	.	.	16gg\	.	.	.
.	.	16AA#/	-bus	16c#\	-bus	16g\	-bus	16ee\	-bus	.	.	16ee\JJ	.	.	.
2BB/	4#	2BB/	e-	2B\	e-	(4g\	e-	4ee\	e-	4g/	.	(4ee\	.	4r	4r
.	.	.	.	.	.	4f#X\)	.	4dd#X\	.	4f#X/	.	4dd#X\)	.	4r	4r
=23	=23	=23	=23	=23	=23	=23	=23	=23	=23	=23	=23	=23	=23	=23	=23
!	!	!	!	!	!	!	!	!	!	!	!	!LO:TX:a:t=problem:mixed beam	!	!	!
4E\	.	4E\	-um,	4B\	-um,	4g\	-um,	4ee\	-um.	4g/	.	16ee\LL	.	4e/	4ee\
.	.	.	.	.	.	.	.	.	.	.	.	16e/	.	.	.
.	.	.	.	.	.	.	.	.	.	.	.	16g/	.	.	.
.	.	.	.	.	.	.	.	.	.	.	.	16b/JJ	.	.	.
4r	.	8r	.	4r	.	4r	.	4r	.	4g/	.	4ee\	.	4r	4r
!	!	!LO:TX:a:t=S&colon;	!	!	!	!	!	!	!	!	!	!	!	!	!
.	.	8E\	fe-	.	.	.	.	.	.	.	.	.	.	.	.
!	!	!	!	!	!	!	!	!	!	!	!LO:DY:a	!	!	!	!
!	!	!	!	!	!	!	!	!	!	!	!LO:DY:t=pi:	!	!	!	!
4r	.	8E\	-cit	4r	.	4r	.	4r	.	4gg\	p	4bb\	p	4r	4r
.	.	8E\	po-	.	.	.	.	.	.	.	.	.	.	.	.
!	!	!	!	!	!	!LO:PB:g=original	!	!	!	!	!	!	!	!	!
=24	=24	=24	=24	=24	=24	=24	=24	=24	=24	=24	=24	=24	=24	=24	=24
!LO:TX:a:t=S&colon;	!	!	!	!LO:TX:a:t=10.	!	!LO:TX:a:t=5	!	!LO:TX:a:t=5	!	!	!	!	!	!	!LO:TX:a:t=11
!	!	!	!	!LO:N:vis=00	!	!LO:N:vis=00	!	!LO:N:vis=00	!	!	!	!	!	!LO:N:vis=00	!LO:N:vis=00
2.G#X\	.	8.d\	-ten-	0.r	.	0.r	.	0.r	.	2.ee\	.	2.bb\	.	0.r	0.r
.	.	16d\	-ti-	.	.	.	.	.	.	.	.	.	.	.	.
.	.	8d\	-am	.	.	.	.	.	.	.	.	.	.	.	.
.	.	8c\	in	.	.	.	.	.	.	.	.	.	.	.	.
.	.	8B\	Bra-	.	.	.	.	.	.	.	.	.	.	.	.
.	.	16A\	-chi-	.	.	.	.	.	.	.	.	.	.	.	.
.	.	16G#X\	-o	.	.	.	.	.	.	.	.	.	.	.	.
=25	=25	=25	=25	=25	=25	=25	=25	=25	=25	=25	=25	=25	=25	=25	=25
4A\	9	16A\LL	Su-	.	.	.	.	.	.	4ee\	.	8bb\L	.	.	.
.	8	16G#X\JJ	.	.	.	.	.	.	.	.	.	.	.	.	.
.	.	8A\	-o	.	.	.	.	.	.	.	.	8aa\	.	.	.
4E\	4#	8r	.	.	.	.	.	.	.	8cc\L	.	8aa\	.	.	.
.	.	8E\	dis-	.	.	.	.	.	.	8b\J	.	8gg#X\J	.	.	.
4E\	6 4	8A\	-per-	.	.	.	.	.	.	4cc\	.	4aa\	.	.	.
.	.	16E\	-sit	.	.	.	.	.	.	.	.	.	.	.	.
.	.	16E\	Su-	.	.	.	.	.	.	.	.	.	.	.	.
!	!	!LO:PB:g=original	!	!	!	!	!	!	!	!LO:LB:g=original	!	!	!	!	!
=26	=26	=26	=26	=26	=26	=26	=26	=26	=26	=26	=26	=26	=26	=26	=26
4E\	#	8B\	-per-	.	.	.	.	.	.	4dd\	.	4gg#X\	.	.	.
.	.	8E\	-bos	.	.	.	.	.	.	.	.	.	.	.	.
4E\	6 4	8c\	men-	.	.	.	.	.	.	8ee\L	.	8aa\L	.	.	.
.	5 #	8B\	-te	.	.	.	.	.	.	8gg#X\J	.	8ddd\J	.	.	.
!	!	!	!	!	!	!	!	!	!	!	!	!LO:TX:a:t=t&colon;	!	!	!
8F#X\L	.	16A\LL	cor-	.	.	.	.	.	.	4aa\	.	4ccc\	.	.	.
.	.	16c\JJ	.	.	.	.	.	.	.	.	.	.	.	.	.
8D#X\J	.	16B\LL	-dis	.	.	.	.	.	.	.	.	.	.	.	.
.	.	16A\JJ	.	.	.	.	.	.	.	.	.	.	.	.	.
!LO:LB:g=original	!	!	!	!	!	!	!	!	!	!	!	!	!	!	!
=27	=27	=27	=27	=27	=27	=27	=27	=27	=27	=27	=27	=27	=27	=27	=27
4E\	#	16G#X\L	su-	.	.	.	.	.	.	8gg#X\L	.	8bb\L	.	.	.
.	.	16F\J	.	.	.	.	.	.	.	.	.	.	.	.	.
.	.	8E\	-i,	.	.	.	.	.	.	8ee\	.	32bb\LL	.	.	.
.	.	.	.	.	.	.	.	.	.	.	.	32aa\	.	.	.
.	.	.	.	.	.	.	.	.	.	.	.	32gg#X\	.	.	.
.	.	.	.	.	.	.	.	.	.	.	.	32ff\JJJ	.	.	.
8E\L	.	4r	.	.	.	.	.	.	.	8b\	.	4ee\	.	.	.
8c\	.	.	.	.	.	.	.	.	.	8ee\	.	.	.	.	.
8B\	6|	4d\	De-	.	.	.	.	.	.	8dd\	.	16gg#X\LL	.	.	.
.	.	.	.	.	.	.	.	.	.	.	.	16ff\	.	.	.
8A\J	.	.	.	.	.	.	.	.	.	8ee\J	.	16gg#\	.	.	.
.	.	.	.	.	.	.	.	.	.	.	.	16aa\JJ	.	.	.
=28	=28	=28	=28	=28	=28	=28	=28	=28	=28	=28	=28	=28	=28	=28	=28
!	!	!	!	!LO:N:vis=00	!	!	!	!	!	!	!	!	!	!LO:N:vis=00	!LO:N:vis=00
4G#X\	6	16d\LL	-po-	0.r	.	2.r	.	2.r	.	4ee\	.	4bb\	.	0.r	0.r
.	.	16c\	.	.	.	.	.	.	.	.	.	.	.	.	.
.	.	16B\	.	.	.	.	.	.	.	.	.	.	.	.	.
.	.	16A\JJ	.	.	.	.	.	.	.	.	.	.	.	.	.
4r	.	16G#X\LL	.	.	.	.	.	.	.	4r	.	4r	.	.	.
.	.	16F,\JJ	.	.	.	.	.	.	.	.	.	.	.	.	.
.	.	16E\LL	-su-	.	.	.	.	.	.	.	.	.	.	.	.
.	.	16D\JJ	.	.	.	.	.	.	.	.	.	.	.	.	.
8r	.	8C,/	-it	.	.	.	.	.	.	8r	.	8r	.	.	.
8G#\	6	8BB/	Po-	.	.	.	.	.	.	8b\	.	8dd\	.	.	.
!	!	!	!	!	!	!	!	!	!	!	!	!LO:PB:g=original	!	!	!
=29	=29	=29	=29	=29	=29	=29	=29	=29	=29	=29	=29	=29	=29	=29	=29
!	!	!	!	!	!	!	!	!	!	!LO:TX:a:t=problem:mixed beam	!	!	!	!	!
4A\	.	16C/LL	-ten-	.	.	4r	.	4r	.	8e/L	.	8cc\L	.	.	.
.	.	16BB/JJ	.	.	.	.	.	.	.	.	.	.	.	.	.
.	.	16AA/	-tes	.	.	.	.	.	.	8cc\J	.	8aa\J	.	.	.
.	.	16A\	de	.	.	.	.	.	.	.	.	.	.	.	.
!LO:TX:a:t=problem:mixed beam	!	!	!	!	!	!	!	!	!	!	!	!	!	!	!
8AA/L	.	4A\	Se-	.	.	8r	.	8r	.	4cc\	.	4aa\	.	.	.
!	!	!	!	!	!	!LO:TX:a:t=S&colon;	!	!LO:TX:a:t=S&colon;	!	!	!	!	!	!	!
8F\J	.	.	.	.	.	8a\	Et	8cc\	Et	.	.	.	.	.	.
4F\	6 4-	4F\	-de	.	.	8b-X\	ex-	8dd\	ex-	4r	.	4r	.	.	.
!	!	!	!	!	!	!	!	!LO:TX:a:t=problem:custos dd	!	!	!	!	!	!	!
.	5 3	.	.	.	.	8a\	-al-	8cc\	-al-	.	.	.	.	.	.
!	!	!	!	!	!	!	!	!LO:LB:g=original	!	!	!	!	!	!	!
=30	=30	=30	=30	=30	=30	=30	=30	=30	=30	=30	=30	=30	=30	=30	=30
!	!	!LO:TX:a:t=2	!	!	!	!	!	!	!	!	!	!LO:TX:a:t=3	!	!	!
!	!	!LO:N:vis=0	!	!	!	!	!	!	!	!LO:N:vis=0	!	!LO:N:vis=0	!	!	!
4F\	.	1.r	.	.	.	8a\	-ta-	8cc\	-ta-	1.r	.	1.r	.	.	.
.	.	.	.	.	.	8f\	-vit	8a\	-vit	.	.	.	.	.	.
8E\L	6 4	.	.	.	.	4a\	hu-	4cc\	hu-	.	.	.	.	.	.
8C\	.	.	.	.	.	.	.	.	.	.	.	.	.	.	.
!	!	!LO:TX:a:t=problem:custos C	!	!	!	!	!	!LO:TX:a:t=t&colon;	!	!	!	!	!	!	!
8D\	6- 4	.	.	.	.	4g\	-mi-	4b-X\	-mi-	.	.	.	.	.	.
8E\J	.	.	.	.	.	.	.	.	.	.	.	.	.	.	.
=31	=31	=31	=31	=31	=31	=31	=31	=31	=31	=31	=31	=31	=31	=31	=31
4F\	.	.	.	.	.	8f\	-les	8a\	-les,	.	.	.	.	.	.
.	.	.	.	.	.	8f\	E-	8f/	E-	.	.	.	.	.	.
4D\	.	.	.	.	.	8f\	-su-	8f/	-su-	.	.	.	.	.	.
.	.	.	.	.	.	8f\	-ri-	8f/	-ri-	.	.	.	.	.	.
4AA/	6	.	.	.	.	8f\	-en-	8f/	-en-	.	.	.	.	.	.
.	.	.	.	.	.	16f\	-tes	16f/	-tes	.	.	.	.	.	.
.	.	.	.	.	.	16f\	im-	16f/	im-	.	.	.	.	.	.
!	!	!LO:LB:g=original	!	!	!	!	!	!	!	!	!	!	!	!	!
=32	=32	=32	=32	=32	=32	=32	=32	=32	=32	=32	=32	=32	=32	=32	=32
!	!	!	!	!LO:N:vis=0	!	!	!	!	!	!	!	!	!	!LO:N:vis=0	!LO:N:vis=0
8BB-X/L	.	4r	.	1.r	.	8g\	-ple-	8b-X\	-ple-	2.r	.	2.r	.	1.r	1.r
8BBn/J	7	.	.	.	.	8f\	-vit	8a\	-vit	.	.	.	.	.	.
4C/	4	4r	.	.	.	4f\	bo-	4a\	Bo-	.	.	.	.	.	.
!	!	!LO:TX:a:t=S&colon;	!	!	!	!	!	!	!	!	!	!	!	!	!
4CC/	3	4C/	Et	.	.	4e\	-nis,	4g\	-nis,	.	.	.	.	.	.
=33	=33	=33	=33	=33	=33	=33	=33	=33	=33	=33	=33	=33	=33	=33	=33
!LO:TX:A:t=problem:niejasne oznaczenie: i/1	!	!	!	!	!	!	!	!	!	!	!	!	!	!	!
!LO:TX:b:t=T&colon;	!	!	!	!	!	!	!	!	!	!	!	!	!	!	!
!LO:TX:a:t=T&colon;	!	!	!	!	!	!LO:TX:a:t=1	!	!LO:TX:a:t=1	!	!	!	!	!LO:DY:a	!	!
8r	1	8.E\	di-	.	.	2.r	.	2.r	.	2.b-X\	.	2.gg\	p	.	.
16C'\LL	1	.	.	.	.	.	.	.	.	.	.	.	.	.	.
16E'\JJ	1	16G\	-vi-	.	.	.	.	.	.	.	.	.	.	.	.
8G'\L	1	8B-X\	-tes	.	.	.	.	.	.	.	.	.	.	.	.
!LO:LB:g=original	!	!	!	!	!	!	!	!	!	!	!	!	!	!	!
8c'\J	1	8A\	di-	.	.	.	.	.	.	.	.	.	.	.	.
8B-X'\L	1	8G\	-mi-	.	.	.	.	.	.	.	.	.	.	.	.
16A'\L	1	16F\	-ſit	.	.	.	.	.	.	.	.	.	.	.	.
16G'\JJ	1	16E\	in-	.	.	.	.	.	.	.	.	.	.	.	.
=34	=34	=34	=34	=34	=34	=34	=34	=34	=34	=34	=34	=34	=34	=34	=34
*	*	*	*	*	*	*	*	*	*	*^	*	*	*	*	*
!LO:TX:a:t=problem:mixed beam	!	!	!	!	!	!	!	!	!	!	!	!	!	!	!	!
8A'\L	1	8F\L	-a-	4r	.	4r	.	4r	.	4ff/	4a\	.	4ff\	.	2.r	2.r
8C'/J	1	16E\L	.	.	.	.	.	.	.	.	.	.	.	.	.	.
.	.	16F\JJ	.	.	.	.	.	.	.	.	.	.	.	.	.	.
8BB-X'/L	1	8G\L	.	4r	.	4r	.	4r	.	4ryy	2ryy	.	4r	.	.	.
16AA'/L	1	16F\L	.	.	.	.	.	.	.	.	.	.	.	.	.	.
16GG'/JJ	1	16E\JJ	.	.	.	.	.	.	.	.	.	.	.	.	.	.
!LO:TX:a:t=problem:mixed beam	!	!	!	!	!	!	!	!	!	!	!	!	!	!	!	!
8FF'/L	1	8F\	-nes,	8r	.	8r	.	8r	.	8ryy	.	.	8r	.	.	.
!LO:TX:a:t=T&colon;	!	!LO:TX:a:t=T&colon;	!	!	!	!LO:TX:a:t=T&colon;	!	!LO:TX:a:t=T&colon;	!	!	!	!LO:DY:a	!	!LO:DY:a	!	!
8F\J	.	8F\	Su-	8A\	Su-	8f\	Sus-	8cc\	Sus-	8cc\	.	f	8cc\	f	.	.
*	*	*	*	*	*	*	*	*	*	*v	*v	*	*	*	*	*
!	!	!	!	!	!	!LO:LB:g=original	!	!	!	!	!	!	!	!	!LO:LB:g=original
=35	=35	=35	=35	=35	=35	=35	=35	=35	=35	=35	=35	=35	=35	=35	=35
4E\	6|_	8E\	-sce-	8A\	-sce-	8g\	-ce-	8cc#X\	-ce-	4gg\	.	16cc#X\LL	.	4ee\	4gg\
.	.	.	.	.	.	.	.	.	.	.	.	16ee\	.	.	.
.	.	8E\	-pit	8A\	-pit	8g\	-pit	8cc#\	-pit	.	.	16dd\	.	.	.
.	.	.	.	.	.	.	.	.	.	.	.	16cc#\JJ	.	.	.
8r	.	16E\	I-	16A\	I-	16g\	I-	16cc#\	I-	16g/LL	.	2cc#\	.	8r	8r
.	.	16E\	-sra-	16A\	-sra-	16g\	-sra-	16cc#\	-sra-	16b-X/	.	.	.	.	.
!	!	!	!	!	!	!	!	!LO:TX:a:t=problem:custos cc#	!	!	!	!	!	!	!
8E\L	.	8E\	-el	8A\	-el	8g\	-el	8cc#\	-el	16a/	.	.	.	8ee\L	8gg\L
.	.	.	.	.	.	.	.	.	.	16g/JJ	.	.	.	.	.
!	!	!	!	!LO:LB:g=original	!	!	!	!LO:LB:g=original	!	!	!	!	!	!	!
8E\	.	8E\	Pu-	8A/	Pu-	8g\	pu-	8cc#X\	Pu-	16g/LL	.	.	.	8ee\	8gg\
.	.	.	.	.	.	.	.	.	.	16b-/	.	.	.	.	.
8E\J	x	16E\	-e-	16A/	-e-	16g\	-e-	16cc#\	-e-	16a/	.	.	.	8ee\J	8gg\J
.	.	16E\	-rum	16A/	-rum	16g\	-rum	16cc#\	-rum	16g/JJ	.	.	.	.	.
!	!	!	!	!	!	!	!	!	!	!	!	!	!	!LO:LB:g=original	!
=36	=36	=36	=36	=36	=36	=36	=36	=36	=36	=36	=36	=36	=36	=36	=36
4D\	.	8D\	Su-	8A/	Su-	8f\	Su-	8dd\	Su-	4f/	.	16dd\LL	.	4ff\	4aa\
.	.	.	.	.	.	.	.	.	.	.	.	16ff\	.	.	.
!	!	!LO:TX:a:t=problem:custos d	!	!	!	!	!	!	!	!	!	!	!	!	!
.	.	8D\	-um	8A/	-um,	8f\	-um	8dd\	-um	.	.	16ee\	.	.	.
.	.	.	.	.	.	.	.	.	.	.	.	16dd\JJ	.	.	.
!	!	!LO:LB:g=original	!	!	!	!	!	!	!	!	!	!	!	!	!
8r	.	8d\	Re-	8f\	Re-	8g\	Re-	8b\	Re-	16f/LL	.	2bn\	.	8r	8r
.	.	.	.	.	.	.	.	.	.	16a/	.	.	.	.	.
16G\LL	n	8d\	-cor-	8f\	-cor-	8g\	-cor-	8b\	-cor-	16g/	.	.	.	8g/L	8dd\L
16A\JJ	.	.	.	.	.	.	.	.	.	16f/JJ	.	.	.	.	.
!	!	!	!	!	!	!	!	!	!	!LO:LB:g=original	!	!	!	!	!
8G\L	.	8d\	-da-	8f\	-da-	8g\	-da-	8b\	-da-	16d/LL	.	.	.	8g/	8dd\
.	.	.	.	.	.	.	.	.	.	16f/	.	.	.	.	.
8F\J	.	16F\	-tus	16d\	-tus	16g\	-tus	16b\	-tus	16e/	.	.	.	8g/J	8dd\J
.	.	16F\	Mi-	16d\	Mi-	16g\	Mi-	16b\	Mi-	16d/JJ	.	.	.	.	.
=37	=37	=37	=37	=37	=37	=37	=37	=37	=37	=37	=37	=37	=37	=37	=37
4E\	6	8E\	-ſe-	8e\	-ſe-	8g\	-se-	8cc\	-ſe-	4g/	.	16cc\LL	.	4cc\	16ee\LL
.	.	.	.	.	.	.	.	.	.	.	.	16ee\	.	.	16cc\
.	.	8C/	-ri-	8e\	-ri-	8g\	-ri-	8cc\	-ri-	.	.	16dd\	.	.	16dd\
.	.	.	.	.	.	.	.	.	.	.	.	16cc\JJ	.	.	16ee\JJ
4C/	.	16C/	-cor-	8e\	-cor-	8g\	-cor-	8cc\	-cor-	16G/LL	.	16e/LL	.	16dd\LL	16ff\LL
.	.	16C/	-di-	.	.	.	.	.	.	16e/	.	16g/	.	16ee\	16gg\
.	.	8C/	-ae	16e\	-di-	16g\	-di-	16cc\	-di-	16d/	.	16f/	.	16ff\	16aa\
.	.	.	.	16e\	-ae	16g\	-ae	16cc\	-ae	16c/JJ	.	16e/JJ	.	16dd\JJ	16bb\JJ
4CC/	.	8C/	Su-	8e\	Su-	8g\	Su-	8cc\	Su-	16ee\LL	.	16c/LL	.	4ee\	4ccc\
.	.	.	.	.	.	.	.	.	.	16gg\	.	16e/	.	.	.
.	.	8C/	-ae,	8c\	-ae,	8g\	-ae,	8cc\	-ae.	16ff\	.	16d/	.	.	.
.	.	.	.	.	.	.	.	.	.	16ee\JJ	.	16c/JJ	.	.	.
!	!	!	!	!	!	!	!	!	!	!	!	!LO:LB:g=original	!	!	!
=38	=38	=38	=38	=38	=38	=38	=38	=38	=38	=38	=38	=38	=38	=38	=38
*	*	*	*	*	*	*	*	*	*	*	*	*	*	*	*2\right
!	!	!	!	!	!	!	!	!LO:TX:a:t=2	!	!	!LO:DY:a	!	!LO:DY:a	!	!LO:TX:a:t=t&colon;
!LO:TX:a:t=S&colon; Taſto.	!	!LO:TX:a:t=S&colon;	!	!LO:TX:a:t=S&colon;	!	!LO:N:vis=0	!	!LO:N:vis=0	!	!	!LO:DY:t=pi:	!	!LO:DY:t=pi:	!LO:N:vis=0	!
4GG`/	.	8D\	Si-	8B\	Si-	1.r	.	1.r	.	8d/L	p	8b\L	p	1.r	2.gg\
.	.	16D\	-cut	16B\	-cut	.	.	.	.	8d/	.	8b\	.	.	.
.	.	16D\	lo-	16B\	lo-	.	.	.	.	.	.	.	.	.	.
4GG`/	.	8E\	-cu-	8c\	-cu-	.	.	.	.	8e/	.	8cc\	.	.	.
.	.	8F\	-tus	8d\	-tus	.	.	.	.	8f/	.	8dd\	.	.	.
4GG`/	.	8E\	eſt	8c\	eſt	.	.	.	.	8e/	.	8cc\	.	.	.
.	.	8G\	ad	8d\	ad	.	.	.	.	8g/J	.	8ee\J	.	.	.
=39	=39	=39	=39	=39	=39	=39	=39	=39	=39	=39	=39	=39	=39	=39	=39
!	!	!	!	!	!	!	!	!	!	!	!	!	!	!	!LO:TX:a:t=t&colon;
4GG`/	.	8.G\	Pa-	8.e\	Pa-	.	.	.	.	8.g/L	.	8.ee\L	.	.	2.gg\
.	.	16F\	-tres	16d\	-tres	.	.	.	.	16f/K	.	16dd\K	.	.	.
4GG`/	.	8E\	no-	8c\	no-	.	.	.	.	8e/	.	8cc\	.	.	.
.	.	8G\	-ſtros	8e\	-ſtros	.	.	.	.	8g/J	.	8ee\J	.	.	.
4GG`/	.	8F\	A-	8d\	A-	.	.	.	.	16f/LL	.	16dd\LL	.	.	.
.	.	.	.	.	.	.	.	.	.	16d/J	.	16ff\J	.	.	.
!	!	!LO:TX:a:t=problem:custos D	!	!	!	!	!	!	!	!	!	!	!	!	!
.	.	8E\	-bra-	8c\	-bra-	.	.	.	.	8e/J	.	8cc\J	.	.	.
!	!	!LO:LB:g=original	!	!LO:LB:g=original	!	!	!	!	!	!	!	!	!	!	!
=40	=40	=40	=40	=40	=40	=40	=40	=40	=40	=40	=40	=40	=40	=40	=40
!LO:TX:a:t=problem:mixed beam	!	!	!	!	!	!	!	!	!	!LO:TX:a:t=problem:mixed beam	!	!	!	!	!
8GG/L	.	8D\	-ham	4B\	-ham,	8r	.	8r	.	8d/L	.	8b\L	.	4g/	4gg\
!	!	!	!	!	!	!LO:TX:a:t=problem:custos g	!	!	!	!	!LO:DY:a	!	!	!	!
8F#X\	.	8F#X\	et	.	.	8a\	Et	8cc\	et	8cc\J	f	8aa\J	f	.	.
!LO:TX:a:t=T&colon;	!	!	!	!	!	!LO:LB:g=original	!	!	!	!	!	!	!	!	!
8F#\	.	8F#\	Se-	4r	.	8a\	Se-	8cc\	Se-	4a/	.	8cc\L	.	4r	4r
8F#\	.	16F#\	-mi-	.	.	16a\	-mi-	16dd\	-mi-	.	.	8a\J	.	.	.
.	.	16F#\	-ni	.	.	16a\	-ni	16ee\	-ni	.	.	.	.	.	.
8F#\	.	8F#\	e-	8r	.	8a\	e-	8dd\	e-	4a/	.	4d/	.	4r	4r
8F#\J	.	16F#\	-jus	8d\	in	16a\	-jus	16cc\	-jus	.	.	.	.	.	.
.	.	16F#\	in	.	.	16a\	in	16cc\	in	.	.	.	.	.	.
!LO:LB:g=original	!	!	!	!	!	!	!	!LO:LB:g=original	!	!	!	!	!	!	!
=41	=41	=41	=41	=41	=41	=41	=41	=41	=41	=41	=41	=41	=41	=41	=41
!	!	!	!	!	!	!	!	!	!	!LO:TX:a:t=t&colon;	!	!	!	!	!
4G\	9 4	8.G\	Sae-	8.d\	Sae-	8.a\	Sae-	8.cc\	Sae-	4a/	.	4cc\	.	8.g\L	8.gg\L
.	.	16G\	-cu-	16d\	-cu-	16g\	-cu-	16b\	-cu-	.	.	.	.	16dd\Jk	16aa\Jk
4GG/	8 3	4G\	-la.	4d\	-la	4g\	-la,	4b\	-la	8g/L	.	16b/LL	.	4dd\	4bb\
.	.	.	.	.	.	.	.	.	.	.	.	16g/	.	.	.
.	.	.	.	.	.	.	.	.	.	16f#X/L	.	16f#X/	.	.	.
.	.	.	.	.	.	.	.	.	.	16e/JJ	.	16e/JJ	.	.	.
4r	.	4r	.	4r	.	4r	.	4r	.	16d/LL	.	16d/LL	.	4dd\	4bb\
.	.	.	.	.	.	.	.	.	.	16c/	.	16c/	.	.	.
.	.	.	.	.	.	.	.	.	.	16B/	.	16B/	.	.	.
.	.	.	.	.	.	.	.	.	.	16A/JJ	.	16A/JJ	.	.	.
!	!	!	!	!	!	!	!	!	!	!	!	!	!	!	!LO:LB:g=original
=42	=42	=42	=42	=42	=42	=42	=42	=42	=42	=42	=42	=42	=42	=42	=42
!LO:TX:b:t=3	!	!LO:TX:a:t=3	!	!LO:TX:a:t=6	!	!	!	!	!	!	!LO:DY:a	!	!LO:DY:a	!	!
!LO:N:vis=0	!	!LO:N:vis=0	!	!LO:N:vis=00	!	!	!	!LO:TX:a:t=S&colon;	!	!	!LO:DY:t=pi:	!	!LO:DY:t=pi:	!	!
1.r	.	1.r	.	0.r	.	2.r	.	8g\	Glo-	4G/	p	4G/	p	4dd\	4bb\
.	.	.	.	.	.	.	.	16b\	-ri-	.	.	.	.	.	.
.	.	.	.	.	.	.	.	16cc\	-a	.	.	.	.	.	.
.	.	.	.	.	.	.	.	4dd\	Pa-	4B/	.	4g/	.	4r	4r
.	.	.	.	.	.	.	.	8ee-X\	-tri	4G/	.	8cc\L	.	4r	4r
.	.	.	.	.	.	.	.	8ff\	et	.	.	8dd\J	.	.	.
!	!	!	!	!	!	!	!	!	!	!LO:LB:g=original	!	!	!	!	!
=43	=43	=43	=43	=43	=43	=43	=43	=43	=43	=43	=43	=43	=43	=43	=43
!	!	!	!	!	!	!	!	!	!	!	!	!LO:TX:a:t=problem:mixed beam	!	!LO:TX:a:t=6	!LO:TX:a:t=6
!	!	!	!	!	!	!	!	!	!	!	!	!	!	!LO:N:vis=00	!LO:N:vis=00
.	.	.	.	.	.	4r	.	8ee-X\	fi-	8c/L	.	8cc\L	.	0.r	0.r
.	.	.	.	.	.	.	.	8dd\	-li-	8d/J	.	8f/J	.	.	.
.	.	.	.	.	.	4r	.	4cc\	-o	4e-X/	.	4g/	.	.	.
!	!	!	!	!	!	!LO:TX:a:t=S&colon;	!	!	!	!	!	!	!	!	!
.	.	.	.	.	.	8g\	et	8ee-X\	et	4c/	.	4g/	.	.	.
.	.	.	.	.	.	8g\	Spi-	8ee-\	Spi-	.	.	.	.	.	.
!	!	!	!	!	!	!	!	!	!	!	!	!LO:LB:g=original	!	!	!
=44	=44	=44	=44	=44	=44	=44	=44	=44	=44	=44	=44	=44	=44	=44	=44
2.r	.	2.r	.	.	.	8f\L	-ri-	8dd\L	-ri-	4f/	.	4a-X/	.	.	.
.	.	.	.	.	.	16a-X\L	.	16ff\L	.	.	.	.	.	.	.
.	.	.	.	.	.	16g\JJ	.	16ee-X\JJ	.	.	.	.	.	.	.
.	.	.	.	.	.	4f\	-tu-	4dd\	-tu-	4r	.	4r	.	.	.
.	.	.	.	.	.	4e-X\	-i	4cc\	-i	4A-X/	.	4f#X/	.	.	.
=45	=45	=45	=45	=45	=45	=45	=45	=45	=45	=45	=45	=45	=45	=45	=45
!	!	!	!	!	!	!LO:TX:a:t=t&colon;	!	!LO:TX:a:t=t&colon;	!	!	!	!	!	!	!
4r	.	4r	.	.	.	4e-X\	San-	4cc\	San-	8G/L	.	4G/	.	.	.
.	.	.	.	.	.	.	.	.	.	8g/J	.	.	.	.	.
4r	.	4r	.	.	.	4d\	-cto,	4bn\	-cto	4G/	.	4g/	.	.	.
!LO:TX:a:t=S&colon;	!	!LO:TX:a:t=S&colon;	!	!	!	!	!	!	!	!	!	!	!	!	!
4G\	.	8G\	Si-	.	.	4r	.	4r	.	4r	.	4r	.	.	.
.	.	8G\	-cut	.	.	.	.	.	.	.	.	.	.	.	.
=46	=46	=46	=46	=46	=46	=46	=46	=46	=46	=46	=46	=46	=46	=46	=46
!	!	!	!	!	!	!	!	!LO:TX:a:t=2	!	!	!	!	!	!	!
!	!	!	!	!LO:N:vis=0	!	!LO:N:vis=0	!	!LO:N:vis=0	!	!	!	!	!	!	!
4F\	-:	8A-X\	e-	1.r	.	1.r	.	1.r	.	4r	.	4r	.	.	.
.	.	8F\	-rat	.	.	.	.	.	.	.	.	.	.	.	.
8r	.	4d\	in	.	.	.	.	.	.	[2dd\	.	[2ff\	.	.	.
8F\L	6	.	.	.	.	.	.	.	.	.	.	.	.	.	.
8G\	.	4c\	prin-	.	.	.	.	.	.	.	.	.	.	.	.
8A-X\J	.	.	.	.	.	.	.	.	.	.	.	.	.	.	.
=47	=47	=47	=47	=47	=47	=47	=47	=47	=47	=47	=47	=47	=47	=47	=47
!	!	!	!	!	!	!LO:TX:a:t=problem:custos g#	!	!LO:TX:a:t=problem:custos dd	!	!	!	!	!	!LO:N:vis=0	!LO:N:vis=0
8.G\L	n	8.Bn\	-ci-	.	.	.	.	.	.	4dd\]	.	4ff\]	.	1.r	1.r
16F\K	.	16A-X\	-pi-	.	.	.	.	.	.	.	.	.	.	.	.
8E-X\	6 7	8G\	-o	.	.	.	.	.	.	4r	.	4r	.	.	.
!	!	!LO:LB:g=original	!	!	!	!	!	!	!	!	!	!	!	!	!
8D\	6n	8F\	et	.	.	.	.	.	.	.	.	.	.	.	.
8C\	.	8E-X\	nunc	.	.	.	.	.	.	8r	.	8r	.	.	.
8BBn\J	6	8D\	et	.	.	.	.	.	.	8g/	.	8ff\	.	.	.
!	!	!	!	!	!	!LO:LB:g=original	!	!LO:LB:g=original	!	!	!	!	!	!	!
=48	=48	=48	=48	=48	=48	=48	=48	=48	=48	=48	=48	=48	=48	=48	=48
4C/	-	16E-X\LL	sem-	4r	.	4r	.	4r	.	4g/	.	4ee-X\	.	.	.
.	.	16D\JJ	.	.	.	.	.	.	.	.	.	.	.	.	.
.	.	8C/	-per,	.	.	.	.	.	.	.	.	.	.	.	.
!LO:TX:a:t=T&colon;	!	!LO:TX:a:t=T&colon;	!	!	!	!	!	!LO:TX:a:t=T&colon;	!	!	!LO:DY:a	!	!LO:DY:a	!	!
4C/	4# 2	8C/	et	8A/	et	8f#X\	et	8dd\	et	4A/	f	4f#X/	f	.	.
.	.	8C/	in	8A/	in	8f#\	in	8dd\	in	.	.	.	.	.	.
4BBn/	6	16BBn/	Sae-	16G/	Sae-	16g\	Sae-	16dd\	Sae-	4d/	.	4g/	.	.	.
.	5	16BB/	-cu-	16G/	-cu-	16g\	-cu-	16dd\	-cu-	.	.	.	.	.	.
.	.	8BB/	-la	8G/	-la	8g\	-la	8dd\	-la	.	.	.	.	.	.
=49	=49	=49	=49	=49	=49	=49	=49	=49	=49	=49	=49	=49	=49	=49	=49
!	!	!	!	!	!	!	!	!	!	!LO:TX:a:t=problem:mixed beam	!	!	!	!	!
4C/	4n	8C/	Sae-	8G/	Sae-	8fn\	Sae-	8dd\	Sae-	16d/LL	.	8ffn\L	.	4dd\	4ff\
.	.	.	.	.	.	.	.	.	.	16dd\	.	.	.	.	.
.	.	8C/	-cu-	8G/	-cu-	8e\	-cu-	8cc\	-cu-	16cc\	.	16een\L	.	.	.
.	.	.	.	.	.	.	.	.	.	16b\JJ	.	16dd\JJ	.	.	.
8r	.	8An\	-lo-	8A\	-lo-	8e\	-lo-	8cc\	-lo-	8cc\L	.	8ee\L	.	8cc\L	8ee\L
8En\L	6	8En\	-rum	8c\	-rum	8e\	-rum	8cc\	-rum	8cc\J	.	8gg\	.	8g\J	8cc\J
!	!	!	!	!	!	!	!	!	!	!LO:TX:a:t=t&colon;	!	!	!	!	!LO:TX:a:t=t&colon;
8F\	6	8F\L	a-	8d\L	a-	(8a\L	a-	8ff\L	a-	4ff\	.	8aa\	.	8r	4dd\
8G\J	.	8G\J	.	8B\J	.	8g\J)	.	8dd\J	.	.	.	8bb\J	.	8g/	.
!	!	!	!	!	!	!	!	!	!	!	!	!	!	!LO:LB:g=original	!
=50	=50	=50	=50	=50	=50	=50	=50	=50	=50	=50	=50	=50	=50	=50	=50
!	!	!	!	!	!	!	!	!	!	!LO:TX:a:t=problem:mixed beam	!	!LO:TX:a:t=problem:mixed beam	!	!	!
4A\	.	4A\	-men.	4e\	-men.	4g\	-men.	4cc\	-men.	8ee\L	.	8ccc\L	.	4e/	4cc\
!	!	!	!	!	!	!	!	!	!	!LO:TX:a:t=problem:falowana linia pod nutami w tt. 50-51	!	!	!	!	!
.	.	.	.	.	.	.	.	.	.	8f#X/	.	8A/J	.	.	.
4r	.	4r	.	4r	.	4r	.	4r	.	8f#/	.	16A/LL	.	4r	4r
.	.	.	.	.	.	.	.	.	.	.	.	16B/	.	.	.
.	.	.	.	.	.	.	.	.	.	8f#/	.	16c/	.	.	.
.	.	.	.	.	.	.	.	.	.	.	.	16d/JJ	.	.	.
4r	.	4r	.	4r	.	4r	.	4r	.	8f#/	.	16c/LL	.	4r	4r
.	.	.	.	.	.	.	.	.	.	.	.	16A/	.	.	.
.	.	.	.	.	.	.	.	.	.	8f#/J	.	16d/	.	.	.
.	.	.	.	.	.	.	.	.	.	.	.	16c/JJ	.	.	.
!LO:LB:g=original	!	!	!	!	!	!	!	!	!	!LO:LB:g=original	!	!LO:LB:g=original	!	!	!
=51	=51	=51	=51	=51	=51	=51	=51	=51	=51	=51	=51	=51	=51	=51	=51
!LO:TX:b:t=2	!	!	!	!	!	!	!	!	!	!	!	!	!	!LO:TX:b:t=2	!
!LO:N:vis=0	!	!LO:N:vis=0	!	!LO:N:vis=0	!	!LO:N:vis=0	!	!LO:N:vis=0	!	!	!	!	!	!LO:N:vis=0	!LO:N:vis=0
1.r	.	1.r	.	1.r	.	1.r	.	1.r	.	8g/L	.	16B/LL	.	1.r	1.r
.	.	.	.	.	.	.	.	.	.	.	.	16d/	.	.	.
.	.	.	.	.	.	.	.	.	.	8g/	.	16G/	.	.	.
.	.	.	.	.	.	.	.	.	.	.	.	16B/JJ	.	.	.
.	.	.	.	.	.	.	.	.	.	8f#X/	.	16A/LL	.	.	.
.	.	.	.	.	.	.	.	.	.	.	.	16B/	.	.	.
.	.	.	.	.	.	.	.	.	.	8f#/	.	16c/	.	.	.
.	.	.	.	.	.	.	.	.	.	.	.	16d/JJ	.	.	.
.	.	.	.	.	.	.	.	.	.	8f#/	.	16c/LL	.	.	.
.	.	.	.	.	.	.	.	.	.	.	.	16A/	.	.	.
.	.	.	.	.	.	.	.	.	.	8f#/J	.	16d/	.	.	.
.	.	.	.	.	.	.	.	.	.	.	.	16c/JJ	.	.	.
=52	=52	=52	=52	=52	=52	=52	=52	=52	=52	=52	=52	=52	=52	=52	=52
.	.	.	.	.	.	.	.	.	.	8g\L	.	16B/LL	.	.	.
.	.	.	.	.	.	.	.	.	.	.	.	16d/	.	.	.
.	.	.	.	.	.	.	.	.	.	16b\L	.	16G/	.	.	.
.	.	.	.	.	.	.	.	.	.	16cc\JJ	.	16d/JJ	.	.	.
.	.	.	.	.	.	.	.	.	.	8dd\	.	16f/LL	.	.	.
.	.	.	.	.	.	.	.	.	.	.	.	16e/	.	.	.
.	.	.	.	.	.	.	.	.	.	4ff\	.	16d/	.	.	.
.	.	.	.	.	.	.	.	.	.	.	.	16c/JJ	.	.	.
.	.	.	.	.	.	.	.	.	.	.	.	16B/LL	.	.	.
.	.	.	.	.	.	.	.	.	.	.	.	16A/	.	.	.
.	.	.	.	.	.	.	.	.	.	8ddd\	.	16G/	.	.	.
.	.	.	.	.	.	.	.	.	.	.	.	16f/JJ	.	.	.
=53	=53	=53	=53	=53	=53	=53	=53	=53	=53	=53	=53	=53	=53	=53	=53
!	!	!	!	!	!	!	!	!	!	!	!	!LO:TX:a:t=problem:mixed beam	!	!	!
8r	.	8r	.	8r	.	8r	.	8r	.	8ccc\L	.	8e/L	.	8r	8r
8A'\	.	8A\	a-	8e\	a-	8g\	a-	8ee\	a-	8ee\J	.	8ccc\J	.	8cc\	8ee\
4F'\	6	4F\	.	4d\	.	4a\	.	4ff\	.	4ff'\	.	4ddd'\	.	4dd\	4ff\
4G'\	.	4G\	.	4B\	.	4g\	.	4dd\	.	4dd'\	.	4bb'\	.	4g/	4dd\
!	!	!LO:LB:g=original	!	!LO:LB:g=original	!	!	!	!	!	!	!	!	!	!	!
=54	=54	=54	=54	=54	=54	=54	=54	=54	=54	=54	=54	=54	=54	=54	=54
4C/	.	4C/	-men.	4e\	-men	4g\	-men.	4cc\	-men,	4ee\	.	4ccc\	.	4cc\	4ee\
4r	.	4r	.	4r	.	4r	.	4r	.	4r	.	4r	.	4r	4r
!	!	!	!	!	!	!LO:TX:b:t= D,A:M:D,H-B.V:M:	!	!	!	!	!	!	!	!	!
4r	.	4r	.	4r	.	4r	.	4r	.	4r	.	4r	.	4r	4r
==	==	==	==	==	==	==	==	==	==	==	==	==	==	==	==
*-	*-	*-	*-	*-	*-	*-	*-	*-	*-	*-	*-	*-	*-	*-	*-
!!!system-decoration: [(g1)][(g2)][(g3)]{g4}
!!!RDF**kern: i = editorial accidental
!!!RDF**kern: >= above
!!!RDF**kern: <= below
!!!RDF**dynam: f=for:
!!!RDF**dynam: p=pia:
!!!ENC: Anna Matuszewska
!!!END: 2020-07-18
